X:1
T:In the Darkness of Gethsemane
T:Leonard C. Voke, 1921
T:In the Darkness of Gethsemane
T:Public Domain
T:Public Domain
C:Leonard C. Voke, 1921
Z:Public Domain
%%score ( 1 2 ) ( 3 4 )
L:1/8
M:4/4
K:F
V:1 treble 
V:2 treble 
V:3 bass 
V:4 bass 
V:1
 [FA][FB] | [FA]2 [EG]2 [B,D]2 [CE]2 | [DF][EG] [FA]4 [FA][FB] | [EA]2 [EG]2 [Ec]2 [EG]2 [FA]6 FF | %4
w: 1.~In the|dark- ness of Geth-|sem- a- ne, In the|gar- den all a- lone, Je- sus|
w: 2.~Cru- ci-|fied up- on the|cru- el tree, See the|bleed- ing Son of God! Dy- ing|
w: 3.~Je- sus,|take my love and|gra- ti- tude, Take me|as I am just now, Tho’ my|
 [Fd]2 [^Fc]2 [GB]2 [Ed]2 | [Fd][Ec] [FA]4 [FA][FA] | [EB]2 [FA]2 [DG]2 [DF]2 | %7
w: cup for you and|me, Suf- fered, bled and|died on Cal- va-|
w: cross for you and|me, With a brok- en|heart on Cal- va-|
w: sin is sink- ing|low, Thou canst cleanse and|make me white as|
 [CE][B,F] [CG]4 [CA][CB] | [Cc]2 [B,F]2 [A,F]2 [B,G]2 | [A,F]6 [=B,E][B,D] | %10
w: ry, ’Neath the glo- ry|of His throne, ’Neath|the glo- ry|
w: ry, Where my sins were|bathed in blood, Where|my sins were|
w: snow, While be- fore Thy|cross I bow, While|be- fore Thy|
 [A,C]2 [A,C]2 [B,D]2 [B,E]2 | [CF]6 x2 |] x6 |] %13
w: of His throne. *|||
w: bathed in blood. *|||
w: cross I bow. *|||
V:2
 x2 | x8 | x8 | x14 FF | x8 | x8 | x8 | x8 | x8 | x8 | x8 | x8 |] x6 |] %13
w: |||drank the||||||||||
w: |||on the||||||||||
w: |||heart in||||||||||
V:3
 [F,C][F,D] | [C,C]2 [C,B,]2 [C,F,]2 [C,G,]2 | [F,A,][F,B,] [F,C]4 [F,C][F,D] | %3
 [C,C]2 [C,B,]2 [C,G,]2 [C,C]2 x8 | [F,C]6 [F,A,][F,A,] | B,2 [A,D]2 [G,D]2 [B,C]2 | %6
 [A,C][G,C] [F,C]4 [F,C][F,C] | [G,C]2 [F,C]2 [B,,G,]2 [=B,,^G,]2 | [C,G,][D,G,] [E,G,]4 F,F, | %9
 [F,A,]2 [D,F,]2 [C,F,]2 [C,E,]2 | F,6 [D,^G,][D,G,] | [C,F,]2 [C,F,]2 [C,G,]2 [C,G,]2 |] %12
 [F,,A,]6 |] %13
V:4
 x2 | x8 | x8 | x16 | x8 | B,2 x6 | x8 | x8 | x6 F,F, | x8 | F,6 x2 | x8 |] x6 |] %13

